Origami/24x24/apps/popcorn-time.svg

<svg width="24" height="24" version="1.1" viewBox="0 0 24 24" xmlns="http://www.w3.org/2000/svg">
 <path d="m14 2.5c-2.359644 0.002037-4.4429115 1.3872511-5.4140625 3.4570312a3 3 0 0 0 -1.5859375 -0.4570312 3 3 0 0 0 -3 3 3 3 0 0 0 0.8457031 2.087891 2.5 2.5 0 0 0 -1.8457031 2.412109 2.5 2.5 0 0 0 0.046875 0.472656c0.00494 0.02579 0.011849 0.05067 0.017578 0.07617a2.5 2.5 0 0 0 0.1269531 0.408203c0.00526 0.01268 0.012115 0.02454 0.017578 0.03711a2.5 2.5 0 0 0 0.2128906 0.392578c0.00679 0.01016 0.014549 0.01924 0.021484 0.0293a2.5 2.5 0 0 0 0.2832031 0.34375c0.00689 0.0069 0.014515 0.01267 0.021484 0.01953a2.5 2.5 0 0 0 0.3398437 0.283203 2.5 2.5 0 0 0 0.00781 0.0039c0.00827 0.0056 0.017052 0.0101 0.025391 0.01563a2.5 2.5 0 0 0 0.40625 0.220703 2.5 2.5 0 0 0 0.4375 0.136719c0.013284 0.0029 0.025701 0.0071 0.039062 0.0098 0.00444 8.94e-4 0.00922 0.0011 0.013672 2e-3a2.5 2.5 0 0 0 0.4824255 0.048748 2.5 2.5 0 0 0 0.5 -0.054688v0.054688c0 1.662 1.338 3 3 3h6c1.662 0 3-1.338 3-3v-0.05078c0.164538 0.03368 0.332051 0.05069 0.5 0.05078 1.380712 0 2.5-1.119288 2.5-2.5-0.0016-0.968486-0.562429-1.848917-1.439453-2.259766 0.288507-0.711738 0.437692-1.4722465 0.439453-2.240234 0-3.3137085-2.686292-6-6-6z" style="opacity:.2"/>
 <path d="m6.5 14.5c-0.831001 0-1.5 0.629991-1.5 1.412109v5.587891c0 0.554 0.418125 1 0.9375 1h2.0625 3 3 3 2.0625c0.519375 0 0.9375-0.446 0.9375-1v-5.587891c0-0.782118-0.668999-1.412109-1.5-1.412109s-1.5 0.629991-1.5 1.412109v0.587891c0-0.831-0.669-1.5-1.5-1.5s-1.5 0.669-1.5 1.5v0.5c0-0.831001-0.669-1.5-1.5-1.5s-1.5 0.668999-1.5 1.5v-0.5c0-0.831-0.669-1.5-1.5-1.5s-1.5 0.669-1.5 1.5v-0.587891c0-0.782118-0.668999-1.412109-1.5-1.412109z" style="opacity:.2"/>
 <path d="m14 2c-2.359644 0.002037-4.4429115 1.3872511-5.4140625 3.4570312a3 3 0 0 0 -1.5859375 -0.4570312 3 3 0 0 0 -3 3 3 3 0 0 0 0.8457031 2.087891 2.5 2.5 0 0 0 -1.8457031 2.412109 2.5 2.5 0 0 0 0.046875 0.472656c0.0049431 0.025789 0.0118491 0.050671 0.0175781 0.076172a2.5 2.5 0 0 0 0.1269531 0.408203c0.0052621 0.012676 0.0121146 0.024541 0.0175782 0.03711a2.5 2.5 0 0 0 0.2128906 0.392578c0.006791 0.010165 0.0145491 0.019237 0.0214844 0.029297a2.5 2.5 0 0 0 0.2832031 0.34375c0.0068884 0.006942 0.0145155 0.012669 0.0214844 0.019531a2.5 2.5 0 0 0 0.3398437 0.283203 2.5 2.5 0 0 0 0.0078125 0.003906c0.008268 0.005626 0.0170521 0.010096 0.0253907 0.015625a2.5 2.5 0 0 0 0.40625 0.220703 2.5 2.5 0 0 0 0.4375 0.136719c0.0132837 0.002904 0.0257006 0.007074 0.0390624 0.009766 0.0044389 8.94e-4 0.0092246 0.001082 0.0136719 0.001953a2.5 2.5 0 0 0 0.4824219 0.048828 2.5 2.5 0 0 0 0.5 -0.054688v0.054688c0 1.662 1.338 3 3 3h6c1.662 0 3-1.338 3-3v-0.050781c0.164538 0.03368 0.332051 0.050691 0.5 0.050781 1.380712 0 2.5-1.119288 2.5-2.5-0.0016-0.968486-0.562429-1.848917-1.439453-2.259766 0.288507-0.7117378 0.437692-1.4722465 0.439453-2.240234 0-3.3137085-2.686292-6-6-6z" style="fill:#e6c59a"/>
 <path d="M 14 2 C 11.640356 2.002037 9.5570885 3.3872511 8.5859375 5.4570312 A 3 3 0 0 0 7 5 A 3 3 0 0 0 4 8 A 3 3 0 0 0 4.0136719 8.2441406 A 3 3 0 0 1 7 5.5 A 3 3 0 0 1 8.5859375 5.9570312 C 9.5570885 3.8872511 11.640356 2.502037 14 2.5 C 17.229266 2.5 19.854213 5.0531976 19.986328 8.25 C 19.990004 8.1666245 19.999808 8.0836061 20 8 C 20 4.6862915 17.313708 2 14 2 z M 4.5292969 10.201172 A 2.5 2.5 0 0 0 3 12.5 A 2.5 2.5 0 0 0 3.0136719 12.736328 A 2.5 2.5 0 0 1 4.8457031 10.587891 A 3 3 0 0 1 4.5292969 10.201172 z M 19.707031 10.322266 C 19.66187 10.462624 19.616096 10.603197 19.560547 10.740234 C 20.347697 11.108981 20.876501 11.857585 20.978516 12.707031 C 20.984307 12.637598 21 12.57093 21 12.5 C 20.998493 11.587933 20.497495 10.759485 19.707031 10.322266 z" style="fill:#ffffff;opacity:.2"/>
 <path d="m14 12c0 1.104569-0.895431 2-2 2s-2-0.895431-2-2z" style="fill:#a81a1a"/>
 <circle cx="7.5" cy="10.5" r="1.5" style="fill:#3f3f3f"/>
 <path d="m18.5 14c-0.831001 0-1.5 0.629647-1.5 1.411765v6.588235h2.0625c0.519375 0 0.9375-0.446 0.9375-1v-5.588235c0-0.782118-0.668999-1.411765-1.5-1.411765z" style="fill:#e54b3f"/>
 <path d="m12.5 15c-0.831 0-1.5 0.668999-1.5 1.5v5.5h3v-5.5c0-0.831001-0.669-1.5-1.5-1.5z" style="fill:#e54b3f"/>
 <path d="m15.5 14.5c-0.831 0-1.5 0.669-1.5 1.5v6h3v-6c0-0.831-0.669-1.5-1.5-1.5z" style="fill:#ffffff"/>
 <path d="M 6.5,14 C 7.331001,14 8,14.629647 8,15.411765 L 8,22 5.9375,22 C 5.418125,22 5,21.554 5,21 L 5,15.411765 C 5,14.629647 5.668999,14 6.5,14 Z" style="fill:#e54b3f"/>
 <path d="m9.5 14.5c0.831 0 1.5 0.669 1.5 1.5v6h-3v-6c0-0.831 0.669-1.5 1.5-1.5z" style="fill:#ffffff"/>
 <circle cx="16.5" cy="10.5" r="1.5" style="fill:#3f3f3f"/>
</svg>

<svg xmlns="http://www.w3.org/2000/svg" width="24" height="24" version="1.1" viewBox="0 0 24 24">
 <path style="opacity:0.2" d="M 14,2.5 C 11.640356,2.502037 9.5570885,3.8872511 8.5859375,5.9570312 A 3,3 0 0 0 7,5.5 3,3 0 0 0 4,8.5 3,3 0 0 0 4.8457031,10.587891 2.5,2.5 0 0 0 3,13 2.5,2.5 0 0 0 3.046875,13.472656 c 0.00494,0.02579 0.011849,0.05067 0.017578,0.07617 a 2.5,2.5 0 0 0 0.1269531,0.408203 c 0.00526,0.01268 0.012115,0.02454 0.017578,0.03711 a 2.5,2.5 0 0 0 0.2128906,0.392578 c 0.00679,0.01016 0.014549,0.01924 0.021484,0.0293 a 2.5,2.5 0 0 0 0.2832031,0.34375 c 0.00689,0.0069 0.014515,0.01267 0.021484,0.01953 a 2.5,2.5 0 0 0 0.3398437,0.283203 2.5,2.5 0 0 0 0.00781,0.0039 c 0.00827,0.0056 0.017052,0.0101 0.025391,0.01563 a 2.5,2.5 0 0 0 0.40625,0.220703 2.5,2.5 0 0 0 0.4375,0.136719 c 0.013284,0.0029 0.025701,0.0071 0.039062,0.0098 0.00444,8.94e-4 0.00922,0.0011 0.013672,0.002 A 2.5,2.5 0 0 0 5.5,15.5 2.5,2.5 0 0 0 6,15.445312 L 6,15.5 c 0,1.662 1.338,3 3,3 l 6,0 c 1.662,0 3,-1.338 3,-3 l 0,-0.05078 C 18.164538,15.4829 18.332051,15.49991 18.5,15.5 19.880712,15.5 21,14.380712 21,13 20.9984,12.031514 20.437571,11.151083 19.560547,10.740234 19.849054,10.028496 19.998239,9.2679875 20,8.5 c 0,-3.3137085 -2.686292,-6 -6,-6 z"/>
 <path style="opacity:0.2" d="M 6.5,14.5 C 5.668999,14.5 5,15.129991 5,15.912109 L 5,21.5 c 0,0.554 0.418125,1 0.9375,1 l 2.0625,0 3,0 3,0 3,0 2.0625,0 C 19.581875,22.5 20,22.054 20,21.5 l 0,-5.587891 C 20,15.129991 19.331001,14.5 18.5,14.5 17.668999,14.5 17,15.129991 17,15.912109 L 17,16.5 C 17,15.669 16.331,15 15.5,15 14.669,15 14,15.669 14,16.5 l 0,0.5 c 0,-0.831001 -0.669,-1.5 -1.5,-1.5 -0.831,0 -1.5,0.668999 -1.5,1.5 l 0,-0.5 C 11,15.669 10.331,15 9.5,15 8.669,15 8,15.669 8,16.5 L 8,15.912109 C 8,15.129991 7.331001,14.5 6.5,14.5 Z"/>
 <path style="fill:#e6c59a" d="M 14 2 C 11.640356 2.002037 9.5570885 3.3872511 8.5859375 5.4570312 A 3 3 0 0 0 7 5 A 3 3 0 0 0 4 8 A 3 3 0 0 0 4.8457031 10.087891 A 2.5 2.5 0 0 0 3 12.5 A 2.5 2.5 0 0 0 3.046875 12.972656 C 3.0518181 12.998445 3.0587241 13.023327 3.0644531 13.048828 A 2.5 2.5 0 0 0 3.1914062 13.457031 C 3.1966683 13.469707 3.2035208 13.481572 3.2089844 13.494141 A 2.5 2.5 0 0 0 3.421875 13.886719 C 3.428666 13.896884 3.4364241 13.905956 3.4433594 13.916016 A 2.5 2.5 0 0 0 3.7265625 14.259766 C 3.7334509 14.266708 3.741078 14.272435 3.7480469 14.279297 A 2.5 2.5 0 0 0 4.0878906 14.5625 A 2.5 2.5 0 0 0 4.0957031 14.566406 C 4.1039711 14.572032 4.1127552 14.576502 4.1210938 14.582031 A 2.5 2.5 0 0 0 4.5273438 14.802734 A 2.5 2.5 0 0 0 4.9648438 14.939453 C 4.9781275 14.942357 4.9905444 14.946527 5.0039062 14.949219 C 5.0083451 14.950113 5.0131308 14.950301 5.0175781 14.951172 A 2.5 2.5 0 0 0 5.5 15 A 2.5 2.5 0 0 0 6 14.945312 L 6 15 C 6 16.662 7.338 18 9 18 L 15 18 C 16.662 18 18 16.662 18 15 L 18 14.949219 C 18.164538 14.982899 18.332051 14.99991 18.5 15 C 19.880712 15 21 13.880712 21 12.5 C 20.9984 11.531514 20.437571 10.651083 19.560547 10.240234 C 19.849054 9.5284962 19.998239 8.7679875 20 8 C 20 4.6862915 17.313708 2 14 2 z"/>
 <path style="opacity:0.2;fill:#ffffff" d="M 14 2 C 11.640356 2.002037 9.5570885 3.3872511 8.5859375 5.4570312 A 3 3 0 0 0 7 5 A 3 3 0 0 0 4 8 A 3 3 0 0 0 4.0136719 8.2441406 A 3 3 0 0 1 7 5.5 A 3 3 0 0 1 8.5859375 5.9570312 C 9.5570885 3.8872511 11.640356 2.502037 14 2.5 C 17.229266 2.5 19.854213 5.0531976 19.986328 8.25 C 19.990004 8.1666245 19.999808 8.0836061 20 8 C 20 4.6862915 17.313708 2 14 2 z M 4.5292969 10.201172 A 2.5 2.5 0 0 0 3 12.5 A 2.5 2.5 0 0 0 3.0136719 12.736328 A 2.5 2.5 0 0 1 4.8457031 10.587891 A 3 3 0 0 1 4.5292969 10.201172 z M 19.707031 10.322266 C 19.66187 10.462624 19.616096 10.603197 19.560547 10.740234 C 20.347697 11.108981 20.876501 11.857585 20.978516 12.707031 C 20.984307 12.637598 21 12.57093 21 12.5 C 20.998493 11.587933 20.497495 10.759485 19.707031 10.322266 z"/>
 <path style="fill:#a81a1a" d="m 14,12 c 0,1.104569 -0.895431,2 -2,2 -1.104569,0 -2,-0.895431 -2,-2 z"/>
 <circle style="fill:#3f3f3f" cx="7.5" cy="10.5" r="1.5"/>
 <path style="fill:#e54b3f" d="M 18.5,14 C 17.668999,14 17,14.629647 17,15.411765 L 17,22 19.0625,22 C 19.581875,22 20,21.554 20,21 l 0,-5.588235 C 20,14.629647 19.331001,14 18.5,14 Z"/>
 <path style="fill:#e54b3f" d="M 12.5,15 C 11.669,15 11,15.668999 11,16.5 l 0,5.5 3,0 0,-5.5 C 14,15.668999 13.331,15 12.5,15 Z"/>
 <path style="fill:#ffffff" d="M 15.5,14.5 C 14.669,14.5 14,15.169 14,16 l 0,6 3,0 0,-6 c 0,-0.831 -0.669,-1.5 -1.5,-1.5 z"/>
 <path style="fill:#e54b3f" d="M 6.5,14 C 7.331001,14 8,14.629647 8,15.411765 L 8,22 5.9375,22 C 5.418125,22 5,21.554 5,21 L 5,15.411765 C 5,14.629647 5.668999,14 6.5,14 Z"/>
 <path style="fill:#ffffff" d="m 9.5,14.5 c 0.831,0 1.5,0.669 1.5,1.5 l 0,6 -3,0 0,-6 c 0,-0.831 0.669,-1.5 1.5,-1.5 z"/>
 <circle style="fill:#3f3f3f" cx="16.5" cy="10.5" r="1.5"/>
</svg>
